X:1
T:Down, Down, Down
M:3/8
L:1/8
K:C
 z2 E| EGG| G3/2 A/2 G| EEE| C2 G| c3/2 c/2 c| cGA| BG^F| G2A/2-B/2|\
 c3/2 d/2 c| cGE| FGA| GEC| G3| D2- D/2 C/2-| C3-| C2 z|
